X: 3309
T: Bell's Favourite
R: jig
M: 6/8
K: Dmajor
|:FEF GFG|BAF A2d|cde ABc|dcB A2G|
FEF GFG|BAF A2d|cde ABc|d3 d3:|
|:a2a fdf|gfg e2d|cde ABc|dcB Afg|
aba fdf|gfg e2d|cde ABc|d3 d3:|

